packages/icons/src/svg/file-xls-o.svg

<svg xmlns="http://www.w3.org/2000/svg" viewBox="0 0 32 32">
  <path class="ti-file" d="M22,0H6V14H8V2H19V12H30V30H8V28H6v4H32V10ZM21,10V2l8,8Z"/>
  <path class="ti-file-xls-o-badge" d="M8,15H0V27H26V15Zm7,10H10V17h2v6h3Zm6.78841-1.5683a2.21452,2.21452,0,0,1-.60547.81348,2.98032,2.98032,0,0,1-.97266.55664,3.87081,3.87081,0,0,1-1.32031.208,4.7929,4.7929,0,0,1-1.56055-.27539,4.12,4.12,0,0,1-1.44922-.8623l1.19922-1.44336a3.98322,3.98322,0,0,0,.92383.55664,2.35914,2.35914,0,0,0,.93555.21387,1.255,1.255,0,0,0,.69141-.14648.475.475,0,0,0,.21289-.416.39862.39862,0,0,0-.07227-.24512.76.76,0,0,0-.21484-.18359,2.45219,2.45219,0,0,0-.33594-.165c-.13086-.05273-.28125-.1123-.45312-.17773l-.99023-.416a2.93776,2.93776,0,0,1-.61328-.32422,2.40573,2.40573,0,0,1-.51367-.47656,2.21224,2.21224,0,0,1-.34766-.62988,2.28384,2.28384,0,0,1-.12891-.7832,2.14885,2.14885,0,0,1,.2207-.96094,2.44638,2.44638,0,0,1,.61133-.7832,2.97307,2.97307,0,0,1,.93555-.53223,3.52433,3.52433,0,0,1,1.19336-.19531,4.03586,4.03586,0,0,1,1.38867.25684,3.41113,3.41113,0,0,1,1.25391.80762L20.724,19.14948a3.833,3.833,0,0,0-.77539-.42871,2.2191,2.2191,0,0,0-.81445-.14648,1.16783,1.16783,0,0,0-.61133.13477.44369.44369,0,0,0-.2207.40332.47276.47276,0,0,0,.3125.43457c.207.10254.49609.22266.86133.36133l.9668.37891a2.61813,2.61813,0,0,1,1.15039.82031,2.1637,2.1637,0,0,1,.4043,1.35742A1.893,1.893,0,0,1,21.78841,23.4317ZM7,25s-.90039-1.75586-1-2H6c-.08984.24414-1,2-1,2H3l2-4L3,17H5s.88672,1.73926,1,2H6c.08984-.26074,1-2,1-2H9L7,21l2,4Z"/>
</svg>

<svg xmlns="http://www.w3.org/2000/svg" viewBox="0 0 32 32">
	<path class="ti-file" d="M22 0H6v14h2V2h11v10h11v18H8v-2H6v4h26V10zm-1 10V2l8 8z"/>
	<path class="ti-file-xls-o-badge" d="M8 15H0v12h26V15zm7 10h-5v-8h2v6h3zm6.788-1.568a2.215 2.215 0 0 1-.605.813 2.98 2.98 0 0 1-.973.557 3.87 3.87 0 0 1-1.32.208 4.793 4.793 0 0 1-1.56-.276 4.12 4.12 0 0 1-1.45-.862l1.2-1.443a3.983 3.983 0 0 0 .923.556 2.36 2.36 0 0 0 .936.214 1.255 1.255 0 0 0 .691-.146.475.475 0 0 0 .213-.416.399.399 0 0 0-.072-.245.76.76 0 0 0-.215-.184 2.452 2.452 0 0 0-.336-.165c-.13-.053-.281-.112-.453-.178l-.99-.416a2.938 2.938 0 0 1-.614-.324 2.406 2.406 0 0 1-.513-.476 2.212 2.212 0 0 1-.348-.63 2.284 2.284 0 0 1-.129-.783 2.149 2.149 0 0 1 .22-.961 2.446 2.446 0 0 1 .612-.784 2.973 2.973 0 0 1 .936-.532 3.524 3.524 0 0 1 1.193-.195 4.036 4.036 0 0 1 1.389.257 3.411 3.411 0 0 1 1.254.807l-1.053 1.321a3.833 3.833 0 0 0-.775-.428 2.22 2.22 0 0 0-.815-.147 1.168 1.168 0 0 0-.611.135.444.444 0 0 0-.22.403.473.473 0 0 0 .312.435c.207.102.496.223.861.361l.967.38a2.618 2.618 0 0 1 1.15.82 2.164 2.164 0 0 1 .404 1.357 1.893 1.893 0 0 1-.209.967zM7 25s-.9-1.756-1-2c-.09.244-1 2-1 2H3l2-4-2-4h2s.887 1.74 1 2c.09-.26 1-2 1-2h2l-2 4 2 4z"/>
</svg>
